public/static/img/user/user.svg

<svg width="24" height="24" viewBox="0 0 24 24" fill="none" xmlns="http://www.w3.org/2000/svg">
<path d="M20.6293 23.1438H3.37073C2.3134 23.1438 1.45312 22.3309 1.45312 21.3316V18.7833C1.45312 15.9008 4.0339 13.5558 7.20598 13.5558H16.794C19.9661 13.5558 22.5469 15.9008 22.5469 18.7833V21.3316C22.5469 22.3309 21.6866 23.1438 20.6293 23.1438ZM3.37073 21.2173L20.6292 21.2262V18.7833C20.6292 16.9582 18.9087 15.4734 16.794 15.4734H7.20595C5.09123 15.4734 3.37073 16.9582 3.37073 18.7833V21.2173ZM11.9923 12.8367C8.68795 12.8367 5.99972 10.1484 5.99972 6.84411C5.99972 3.5398 8.68793 0.851562 11.9923 0.851562C15.2966 0.851562 17.9848 3.53977 17.9848 6.84411C17.9848 10.1484 15.2966 12.8367 11.9923 12.8367ZM11.9923 2.76917C9.74529 2.76917 7.91733 4.59713 7.91733 6.84411C7.91733 9.09109 9.74531 10.919 11.9923 10.919C14.2392 10.919 16.0672 9.09109 16.0672 6.84411C16.0672 4.59713 14.2392 2.76917 11.9923 2.76917Z" fill="#333333"/>
</svg>

<svg width="24" height="24" viewBox="0 0 24 24" fill="none" xmlns="http://www.w3.org/2000/svg"><path d="M20.63 23.144H3.37c-1.057 0-1.917-.813-1.917-1.812v-2.549c0-2.882 2.58-5.227 5.753-5.227h9.588c3.172 0 5.753 2.345 5.753 5.227v2.549c0 .999-.86 1.812-1.918 1.812zM3.37 21.217l17.26.01v-2.444c0-1.825-1.721-3.31-3.836-3.31H7.206c-2.115 0-3.835 1.485-3.835 3.31v2.434zm8.622-8.38A6 6 0 0 1 6 6.844 6 6 0 0 1 11.992.852a6 6 0 0 1 5.993 5.992 6 6 0 0 1-5.993 5.993zm0-10.068a4.08 4.08 0 0 0-4.075 4.075 4.08 4.08 0 0 0 4.075 4.075 4.08 4.08 0 0 0 4.075-4.075 4.08 4.08 0 0 0-4.075-4.075z" fill="#333"/></svg>
